public/assets/integrate.svg

<svg viewBox="0 0 52 52" fill="none" xmlns="http://www.w3.org/2000/svg">
<path d="M48.7273 12.3636C47.427 12.3636 46.7729 13.1899 46.5474 13.987H46.1299V6.51948C46.1299 6.16056 45.8391 5.87013 45.4805 5.87013H38.013V5.45224C38.8101 5.22712 39.6364 4.5727 39.6364 3.27273C39.6364 1.60496 38.2771 1 37.3636 1H34.1169C33.2034 1 31.8442 1.60496 31.8442 3.27273C31.8442 4.5727 32.6704 5.22712 33.4675 5.45224V5.87013H26H18.5325V5.45224C19.3296 5.22712 20.1558 4.5727 20.1558 3.27273C20.1558 1.60496 18.7966 1 17.8831 1H14.6364C13.7229 1 12.3636 1.60496 12.3636 3.27273C12.3636 4.5727 13.1899 5.22712 13.987 5.45224V5.87013H6.51948C6.16088 5.87013 5.87013 6.16056 5.87013 6.51948V13.987H5.45255C5.22712 13.1899 4.57301 12.3636 3.27273 12.3636C1.60528 12.3636 1 13.7226 1 14.6364V17.8831C1 18.7969 1.60528 20.1558 3.27273 20.1558C4.57301 20.1558 5.22712 19.3296 5.45255 18.5325H5.87013V26V33.4675H5.45255C5.22712 32.6704 4.57301 31.8442 3.27273 31.8442C1.60528 31.8442 1 33.2031 1 34.1169V37.3636C1 38.2774 1.60528 39.6364 3.27273 39.6364C4.57301 39.6364 5.22712 38.8101 5.45255 38.013H5.87013V45.4805C5.87013 45.8394 6.16088 46.1299 6.51948 46.1299H13.987V46.5478C13.1899 46.7729 12.3636 47.4273 12.3636 48.7273C12.3636 50.395 13.7229 51 14.6364 51H17.8831C18.7966 51 20.1558 50.395 20.1558 48.7273C20.1558 47.4273 19.3296 46.7729 18.5325 46.5478V46.1299H26H33.4675V46.5478C32.6704 46.7729 31.8442 47.4273 31.8442 48.7273C31.8442 50.395 33.2034 51 34.1169 51H37.3636C38.2771 51 39.6364 50.395 39.6364 48.7273C39.6364 47.4273 38.8101 46.7729 38.013 46.5478V46.1299H45.4805C45.8391 46.1299 46.1299 45.8394 46.1299 45.4805V38.013H46.5474C46.7729 38.8101 47.427 39.6364 48.7273 39.6364C50.3947 39.6364 51 38.2774 51 37.3636V34.1169C51 33.2031 50.3947 31.8442 48.7273 31.8442C47.427 31.8442 46.7729 32.6704 46.5474 33.4675H46.1299V26V18.5325H46.5474C46.7729 19.3296 47.427 20.1558 48.7273 20.1558C50.3947 20.1558 51 18.7969 51 17.8831V14.6364C51 13.7226 50.3947 12.3636 48.7273 12.3636ZM5.87013 36.7143H4.8961C4.5375 36.7143 4.24675 37.0047 4.24675 37.3636C4.24675 37.526 4.19983 38.3377 3.27273 38.3377C2.41063 38.3377 2.30441 37.6522 2.2987 37.3636V34.1169C2.2987 33.9545 2.34563 33.1429 3.27273 33.1429C4.13483 33.1429 4.24105 33.8284 4.24675 34.1169C4.24675 34.4758 4.5375 34.7662 4.8961 34.7662H5.87013V36.7143ZM33.1429 3.27273C33.1429 2.41094 33.8284 2.30441 34.1169 2.2987H37.3636C37.5263 2.2987 38.3377 2.34563 38.3377 3.27273C38.3377 4.13451 37.6522 4.24105 37.3636 4.24675C37.005 4.24675 36.7143 4.53719 36.7143 4.8961V5.87013H34.7662V4.8961C34.7662 4.53719 34.4755 4.24675 34.1169 4.24675C33.9542 4.24675 33.1429 4.19983 33.1429 3.27273ZM6.51948 17.2338H4.8961C4.5375 17.2338 4.24675 17.5242 4.24675 17.8831C4.24675 18.0455 4.19983 18.8571 3.27273 18.8571C2.41063 18.8571 2.30441 18.1716 2.2987 17.8831V14.6364C2.2987 14.474 2.34563 13.6623 3.27273 13.6623C4.13483 13.6623 4.24105 14.3478 4.24675 14.6364C4.24675 14.9953 4.5375 15.2857 4.8961 15.2857H6.51948C6.87808 15.2857 7.16883 14.9953 7.16883 14.6364V7.16883H14.6364C14.995 7.16883 15.2857 6.8784 15.2857 6.51948V4.8961C15.2857 4.53719 14.995 4.24675 14.6364 4.24675C14.4737 4.24675 13.6623 4.19983 13.6623 3.27273C13.6623 2.41094 14.3478 2.30441 14.6364 2.2987H17.8831C18.0458 2.2987 18.8571 2.34563 18.8571 3.27273C18.8571 4.13451 18.1716 4.24105 17.8831 4.24675C17.5245 4.24675 17.2338 4.53719 17.2338 4.8961V6.51948C17.2338 6.8784 17.5245 7.16883 17.8831 7.16883H25.3506V14.6364C25.3506 14.9953 25.6414 15.2857 26 15.2857H27.6234C27.982 15.2857 28.2727 14.9953 28.2727 14.6364C28.2727 14.474 28.3197 13.6623 29.2468 13.6623C30.1089 13.6623 30.2151 14.3478 30.2208 14.6364V17.8831C30.2208 18.0455 30.1739 18.8571 29.2468 18.8571C28.3847 18.8571 28.2784 18.1716 28.2727 17.8831C28.2727 17.5242 27.982 17.2338 27.6234 17.2338H26C25.6414 17.2338 25.3506 17.5242 25.3506 17.8831V25.3506H18.5325V24.9328C19.3296 24.7076 20.1558 24.0532 20.1558 22.7532C20.1558 21.0855 18.7966 20.4805 17.8831 20.4805H14.6364C13.7229 20.4805 12.3636 21.0855 12.3636 22.7532C12.3636 24.0532 13.1899 24.7076 13.987 24.9328V25.3506H7.16883V17.8831C7.16883 17.5242 6.87808 17.2338 6.51948 17.2338ZM25.3506 44.8312H17.8831C17.5245 44.8312 17.2338 45.1216 17.2338 45.4805V47.1039C17.2338 47.4628 17.5245 47.7532 17.8831 47.7532C18.0458 47.7532 18.8571 47.8002 18.8571 48.7273C18.8571 49.5872 18.1748 49.695 17.879 49.7013H14.6364C14.4737 49.7013 13.6623 49.6544 13.6623 48.7273C13.6623 47.8655 14.3478 47.759 14.6364 47.7532C14.995 47.7532 15.2857 47.4628 15.2857 47.1039V45.4805C15.2857 45.1216 14.995 44.8312 14.6364 44.8312H7.16883V37.3636V34.1169V26.6494H14.6364C14.995 26.6494 15.2857 26.3589 15.2857 26V24.3766C15.2857 24.0177 14.995 23.7273 14.6364 23.7273C14.4737 23.7273 13.6623 23.6803 13.6623 22.7532C13.6623 21.8915 14.3478 21.7849 14.6364 21.7792H17.8831C18.0458 21.7792 18.8571 21.8261 18.8571 22.7532C18.8571 23.615 18.1716 23.7216 17.8831 23.7273C17.5245 23.7273 17.2338 24.0177 17.2338 24.3766V26C17.2338 26.3589 17.5245 26.6494 17.8831 26.6494H25.3506V33.4675H24.9331C24.7076 32.6704 24.0535 31.8442 22.7532 31.8442C21.0858 31.8442 20.4805 33.2031 20.4805 34.1169V37.3636C20.4805 38.2774 21.0858 39.6364 22.7532 39.6364C24.0535 39.6364 24.7076 38.8101 24.9331 38.013H25.3506V44.8312ZM44.8312 34.1169V37.3636V44.8312H37.3636C37.005 44.8312 36.7143 45.1216 36.7143 45.4805V47.1039C36.7143 47.4628 37.005 47.7532 37.3636 47.7532C37.5263 47.7532 38.3377 47.8002 38.3377 48.7273C38.3377 49.5872 37.6553 49.695 37.3595 49.7013H34.1169C33.9542 49.7013 33.1429 49.6544 33.1429 48.7273C33.1429 47.8655 33.8284 47.759 34.1169 47.7532C34.4755 47.7532 34.7662 47.4628 34.7662 47.1039V45.4805C34.7662 45.1216 34.4755 44.8312 34.1169 44.8312H26.6494V37.3636C26.6494 37.0047 26.3586 36.7143 26 36.7143H24.3766C24.018 36.7143 23.7273 37.0047 23.7273 37.3636C23.7273 37.526 23.6803 38.3377 22.7532 38.3377C21.8911 38.3377 21.7849 37.6522 21.7792 37.3636V34.1169C21.7792 33.9545 21.8261 33.1429 22.7532 33.1429C23.6153 33.1429 23.7216 33.8284 23.7273 34.1169C23.7273 34.4758 24.018 34.7662 24.3766 34.7662H26C26.3586 34.7662 26.6494 34.4758 26.6494 34.1169V26.6494H33.4675V27.0672C32.6704 27.2924 31.8442 27.9468 31.8442 29.2468C31.8442 30.9145 33.2034 31.5195 34.1169 31.5195H37.3636C38.2771 31.5195 39.6364 30.9145 39.6364 29.2468C39.6364 27.9468 38.8101 27.2924 38.013 27.0672V26.6494H44.8312V34.1169ZM44.8312 14.6364V17.8831V25.3506H37.3636C37.005 25.3506 36.7143 25.6411 36.7143 26V27.6234C36.7143 27.9823 37.005 28.2727 37.3636 28.2727C37.5263 28.2727 38.3377 28.3197 38.3377 29.2468C38.3377 29.3544 38.327 29.4502 38.3077 29.5355C38.2933 29.5992 38.27 29.6515 38.2469 29.704C38.2391 29.7218 38.235 29.7443 38.2264 29.7609C38.0206 30.1542 37.5814 30.216 37.3595 30.2208H34.1169C33.9542 30.2208 33.1429 30.1739 33.1429 29.2468C33.1429 28.385 33.8284 28.2784 34.1169 28.2727C34.4755 28.2727 34.7662 27.9823 34.7662 27.6234V26C34.7662 25.6411 34.4755 25.3506 34.1169 25.3506H26.6494V18.5325H27.0669C27.2924 19.3296 27.9465 20.1558 29.2468 20.1558C30.9142 20.1558 31.5195 18.7969 31.5195 17.8831V14.6364C31.5195 13.7226 30.9142 12.3636 29.2468 12.3636C27.9465 12.3636 27.2924 13.1899 27.0669 13.987H26.6494V7.16883H34.1169H37.3636H44.8312V14.6364ZM47.1039 34.7662C47.4625 34.7662 47.7532 34.4758 47.7532 34.1169C47.7532 33.9545 47.8002 33.1429 48.7273 33.1429C49.5894 33.1429 49.6956 33.8284 49.7013 34.1169V37.3636C49.7013 37.526 49.6544 38.3377 48.7273 38.3377C47.8652 38.3377 47.759 37.6522 47.7532 37.3636C47.7532 37.0047 47.4625 36.7143 47.1039 36.7143H46.1299V34.7662H47.1039ZM49.7013 17.8831C49.7013 18.0455 49.6544 18.8571 48.7273 18.8571C47.8652 18.8571 47.759 18.1716 47.7532 17.8831C47.7532 17.5242 47.4625 17.2338 47.1039 17.2338H46.1299V15.2857H47.1039C47.4625 15.2857 47.7532 14.9953 47.7532 14.6364C47.7532 14.474 47.8002 13.6623 48.7273 13.6623C49.5894 13.6623 49.6956 14.3478 49.7013 14.6364V17.8831Z" fill="#A8A5CE" stroke="#A8A5CE"/>
</svg>

<svg viewBox="0 0 52 52" fill="none" xmlns="http://www.w3.org/2000/svg"><path d="M48.73 12.36c-1.3 0-1.96.83-2.18 1.63h-.42V6.52c0-.36-.3-.65-.65-.65h-7.47v-.42c.8-.22 1.63-.88 1.63-2.18C39.64 1.6 38.28 1 37.36 1h-3.24c-.92 0-2.28.6-2.28 2.27 0 1.3.83 1.96 1.63 2.18v.42H18.53v-.42c.8-.22 1.63-.88 1.63-2.18C20.16 1.6 18.8 1 17.88 1h-3.24c-.92 0-2.28.6-2.28 2.27 0 1.3.83 1.96 1.63 2.18v.42H6.52a.65.65 0 00-.65.65v7.47h-.42a2.15 2.15 0 00-2.18-1.63C1.61 12.36 1 13.72 1 14.64v3.24c0 .92.6 2.28 2.27 2.28 1.3 0 1.96-.83 2.18-1.63h.42v14.94h-.42a2.15 2.15 0 00-2.18-1.63C1.61 31.84 1 33.2 1 34.12v3.24c0 .92.6 2.28 2.27 2.28 1.3 0 1.96-.83 2.18-1.63h.42v7.47c0 .36.3.65.65.65h7.47v.42c-.8.22-1.63.88-1.63 2.18 0 1.67 1.36 2.27 2.28 2.27h3.24c.92 0 2.28-.6 2.28-2.27 0-1.3-.83-1.96-1.63-2.18v-.42h14.94v.42c-.8.22-1.63.88-1.63 2.18 0 1.67 1.36 2.27 2.28 2.27h3.24c.92 0 2.28-.6 2.28-2.27 0-1.3-.83-1.96-1.63-2.18v-.42h7.47c.36 0 .65-.3.65-.65v-7.47h.42c.22.8.88 1.63 2.18 1.63 1.66 0 2.27-1.36 2.27-2.28v-3.24c0-.92-.6-2.28-2.27-2.28-1.3 0-1.96.83-2.18 1.63h-.42V18.53h.42c.22.8.88 1.63 2.18 1.63 1.66 0 2.27-1.36 2.27-2.28v-3.24c0-.92-.6-2.28-2.27-2.28zM5.87 36.71H4.9a.65.65 0 00-.65.65c0 .17-.05.98-.98.98-.86 0-.97-.69-.97-.98v-3.24c0-.17.05-.98.97-.98.86 0 .97.69.98.98 0 .36.29.65.65.65h.97v1.94zM33.14 3.27c0-.86.69-.97.98-.97h3.24c.17 0 .98.05.98.97 0 .86-.69.97-.98.98a.65.65 0 00-.65.65v.97h-1.94V4.9c0-.36-.3-.65-.65-.65-.17 0-.98-.05-.98-.98zM6.52 17.23H4.9a.65.65 0 00-.65.65c0 .17-.05.98-.98.98-.86 0-.97-.69-.97-.98v-3.24c0-.17.05-.98.97-.98.86 0 .97.69.98.98 0 .36.29.65.65.65h1.62c.36 0 .65-.3.65-.65V7.17h7.47c.35 0 .65-.3.65-.65V4.9c0-.36-.3-.65-.65-.65-.17 0-.98-.05-.98-.98 0-.86.69-.97.98-.97h3.24c.17 0 .98.05.98.97 0 .86-.69.97-.98.98a.65.65 0 00-.65.65v1.62c0 .36.3.65.65.65h7.47v7.47c0 .36.3.65.65.65h1.62c.36 0 .65-.3.65-.65 0-.17.05-.98.98-.98.86 0 .97.69.97.98v3.24c0 .17-.05.98-.97.98-.87 0-.97-.69-.98-.98 0-.36-.29-.65-.65-.65H26a.65.65 0 00-.65.65v7.47h-6.82v-.42c.8-.22 1.63-.88 1.63-2.18 0-1.66-1.36-2.27-2.28-2.27h-3.24c-.92 0-2.28.6-2.28 2.27 0 1.3.83 1.96 1.63 2.18v.42H7.17v-7.47c0-.36-.3-.65-.65-.65zm18.83 27.6h-7.47a.65.65 0 00-.65.65v1.62c0 .36.3.65.65.65.17 0 .98.05.98.98 0 .86-.69.97-.98.97h-3.24c-.17 0-.98-.05-.98-.97 0-.86.69-.97.98-.98.35 0 .65-.29.65-.65v-1.62c0-.36-.3-.65-.65-.65H7.17V26.65h7.47c.35 0 .65-.3.65-.65v-1.62c0-.36-.3-.65-.65-.65-.17 0-.98-.05-.98-.98 0-.86.69-.97.98-.97h3.24c.17 0 .98.05.98.97 0 .86-.69.97-.98.98a.65.65 0 00-.65.65V26c0 .36.3.65.65.65h7.47v6.82h-.42a2.15 2.15 0 00-2.18-1.63c-1.66 0-2.27 1.36-2.27 2.28v3.24c0 .92.6 2.28 2.27 2.28 1.3 0 1.96-.83 2.18-1.63h.42v6.82zm19.48-10.71v10.71h-7.47a.65.65 0 00-.65.65v1.62c0 .36.3.65.65.65.17 0 .98.05.98.98 0 .86-.68.97-.98.97h-3.24c-.17 0-.98-.05-.98-.97 0-.86.69-.97.98-.98.36 0 .65-.29.65-.65v-1.62c0-.36-.3-.65-.65-.65h-7.47v-7.47c0-.36-.3-.65-.65-.65h-1.62a.65.65 0 00-.65.65c0 .17-.05.98-.98.98-.86 0-.97-.69-.97-.98v-3.24c0-.17.05-.98.97-.98.87 0 .97.69.98.98 0 .36.29.65.65.65H26c.36 0 .65-.3.65-.65v-7.47h6.82v.42c-.8.22-1.63.88-1.63 2.18 0 1.66 1.36 2.27 2.28 2.27h3.24c.92 0 2.28-.6 2.28-2.27 0-1.3-.83-1.96-1.63-2.18v-.42h6.82v7.47zm0-19.48v10.71h-7.47c-.35 0-.65.3-.65.65v1.62c0 .36.3.65.65.65.17 0 .98.05.98.98 0 .1-.01.2-.03.29l-.06.16-.02.06c-.2.4-.65.46-.87.46h-3.24c-.17 0-.98-.05-.98-.97 0-.86.69-.97.98-.98.36 0 .65-.29.65-.65V26c0-.36-.3-.65-.65-.65h-7.47v-6.82h.42c.22.8.88 1.63 2.18 1.63 1.66 0 2.27-1.36 2.27-2.28v-3.24c0-.92-.6-2.28-2.27-2.28-1.3 0-1.96.83-2.18 1.63h-.42V7.17h18.18v7.47zm2.27 20.13c.36 0 .65-.3.65-.65 0-.17.05-.98.98-.98.86 0 .97.69.97.98v3.24c0 .17-.05.98-.97.98-.86 0-.97-.69-.98-.98 0-.36-.29-.65-.65-.65h-.97v-1.94h.97zm2.6-16.89c0 .17-.05.98-.97.98-.86 0-.97-.69-.98-.98 0-.36-.29-.65-.65-.65h-.97V15.3h.97c.36 0 .65-.3.65-.65 0-.17.05-.98.98-.98.86 0 .97.69.97.98v3.24z" fill="#A8A5CE" stroke="#A8A5CE"/></svg>
